X: 42718
T: Whistling Postman, The
R: jig
M: 6/8
K: Dmajor
|~f3 edB|~A3 BAF|DFA dfa|baf ede|
~f3 edB|~A3 BAF|DFA ~B3|cBc d2e:|
~f3 afd|gBe gBe|~f3 afa|baf ede|
~f3 edB|~A3 BAF|DFA ~B3|cBc d3:|

